X:7
T: HERR OLOFF REITET SO SPAET UND WEIT
N: Z0008
O: Europa, Mitteleuropa, Deutschland, Norddeutschland
R: Sagen - Lied, Romanze
M: 6/8
L: 1/16
K: F
C2 | A3BG2F2C2F2 | A3BG2F4
G2 | A2=B2c2c4d2 | e3fd2c4
c2 | c2A2A2F2f2c2c2A2 | a2f2f2c2c2B2
B2B2 | B2G2G2E2e2B2B2G2 | g2e2e2B2B2A2
A2c2 | f2c2c2f2d2B2B2d2 | c3dc2B2A6
c2 | f2c2c2A2d2B2B2G2 | c3dE2E2F4z2

